X: 1
T: Jump Ship
M: 4/4
L: 1/8
R: reel
K: Emin
FG |:\
BE E/E/E DEBD | CGFD E/E/E dB | BE E/E/E DEBD | C/C/C BC BAGd |
BE E/E/E DEBD | CGFD E/E/E dB | BE E/E/E DEBD |[1 CBCD GEFD :|[ 2 CBCA Bde &quot;&quot; ||
|: eB B/B/B eBgB | dA A/A/A dAfA | eB B/B/B eBgB | dfdB &quot;!&quot; BABd |
eB B/B/B eBgB | dA A/A/A dAfA | eB B/B/B eBgB | GFGB GFDE :|
